app/dist/common/images/katek-se.svg

<svg height="18" viewBox="0 0 18 18" width="18" xmlns="http://www.w3.org/2000/svg"><path d="m0 0h18v18h-18z" fill="#01b4dc"/><path d="m5 13v-2h1v-4h-1v-2h3v3.17l2.88-3.17h2.12v2h-1.36l-1.99 2 2 2h1.35v2h-2.1l-2.9-3.13v3.13z" fill="#fff"/></svg>

<!-- by TradingView --><svg width="18" height="18" viewBox="0 0 18 18" xmlns="http://www.w3.org/2000/svg"><path fill="#01B4DC" d="M0 0h18v18H0z"/><path d="M5 13v-2h1V7H5V5h3v3.17L10.88 5H13v2h-1.36L9.65 9l2 2H13v2h-2.1L8 9.87V13H5Z" fill="#fff"/></svg>
